src/assets/icons/comment.svg

<svg width="14" height="14" viewBox="0 0 14 14" fill="none" xmlns="http://www.w3.org/2000/svg">
<g id="comment">
<g clip-path="url(#clip0_156_4493)">
<path id="Vector" fill-rule="evenodd" clip-rule="evenodd" d="M7.45294 1.23529C6.7252 1.23529 6.02367 1.38969 5.38557 1.65681C4.75321 1.92151 4.17779 2.31215 3.69792 2.79202C3.22083 3.26911 2.83573 3.84517 2.56033 4.48529C2.289 5.11594 2.14119 5.81518 2.14119 6.54706C2.14119 7.2748 2.29559 7.97633 2.56271 8.61443C2.61821 8.74703 2.62573 8.89484 2.58397 9.03238L1.54461 12.4554L4.96762 11.4161C5.10717 11.3737 5.2572 11.3821 5.39117 11.4397C6.02182 11.711 6.72106 11.8588 7.45294 11.8588C8.18068 11.8588 8.88224 11.7044 9.52034 11.4373C10.1527 11.1726 10.7281 10.7819 11.208 10.3021C11.6851 9.82495 12.0702 9.24893 12.3456 8.60883C12.6169 7.97818 12.7647 7.27894 12.7647 6.54706C12.7647 5.81932 12.6103 5.11779 12.3432 4.47969C12.0785 3.84733 11.6878 3.27189 11.208 2.79202C10.7309 2.31493 10.1548 1.92982 9.51473 1.65443C8.88409 1.3831 8.18482 1.23529 7.45294 1.23529ZM4.90857 0.517321C5.68694 0.191494 6.55009 0 7.45294 0C8.35164 0 9.21711 0.181613 10.0029 0.519699C10.7793 0.853714 11.488 1.32505 12.0815 1.91854C12.6722 2.50926 13.1544 3.21858 13.4827 4.00269C13.8085 4.78106 14 5.64422 14 6.54706C14 7.44577 13.8184 8.31121 13.4803 9.09703C13.1463 9.8734 12.6749 10.582 12.0815 11.1755C11.4908 11.7662 10.7815 12.2486 9.99733 12.5768C9.21896 12.9026 8.35578 13.0941 7.45294 13.0941C6.635 13.0941 5.84461 12.9437 5.11672 12.6618L0.79711 13.9733C0.578984 14.0396 0.342111 13.9803 0.180919 13.8191C0.0197276 13.6579 -0.0395722 13.421 0.0266593 13.2029L1.33907 8.8806C1.06468 8.15836 0.905902 7.36917 0.905902 6.54706C0.905902 5.64836 1.08752 4.78291 1.4256 3.99709C1.75961 3.22074 2.23094 2.51203 2.82444 1.91854C3.41516 1.32782 4.12445 0.845557 4.90857 0.517321Z" fill="black"/>
</g>
</g>
<defs>
<clipPath id="clip0_156_4493">
<rect width="14" height="14" fill="white"/>
</clipPath>
</defs>
</svg>

<svg xmlns="http://www.w3.org/2000/svg" fill="none" viewBox="0 0 14 14"><g clip-path="url(#a)"><path fill="#000" fill-rule="evenodd" d="M7.453 1.235c-.728 0-1.43.155-2.067.422A5.28 5.28 0 0 0 2.56 4.485a5.2 5.2 0 0 0-.419 2.062c0 .728.155 1.43.422 2.067.055.133.063.28.021.418l-1.04 3.423 3.424-1.039a.62.62 0 0 1 .423.024c.63.271 1.33.419 2.062.419.728 0 1.43-.155 2.067-.422a5.28 5.28 0 0 0 2.826-2.828c.27-.63.419-1.33.419-2.062 0-.728-.155-1.43-.422-2.067a5.28 5.28 0 0 0-2.828-2.826 5.2 5.2 0 0 0-2.062-.419M4.909.517A6.6 6.6 0 0 1 7.453 0c.899 0 1.764.182 2.55.52a6.517 6.517 0 0 1 3.48 3.483c.325.778.517 1.641.517 2.544 0 .899-.182 1.764-.52 2.55a6.514 6.514 0 0 1-3.483 3.48 6.6 6.6 0 0 1-2.544.517c-.818 0-1.608-.15-2.336-.432l-4.32 1.311a.617.617 0 0 1-.77-.77L1.339 8.88a6.6 6.6 0 0 1-.433-2.334c0-.899.182-1.764.52-2.55A6.515 6.515 0 0 1 4.909.517" clip-rule="evenodd"/></g><defs><clipPath id="a"><path fill="#fff" d="M0 0h14v14H0z"/></clipPath></defs></svg>
